images/logo/logo.svg

<svg width="91" height="35" viewBox="0 0 91 35" fill="none" xmlns="http://www.w3.org/2000/svg">
<g clip-path="url(#clip0_305_449)">
<path d="M21.6005 0C18.0467 0 14.6385 1.41173 12.1256 3.92462L3.92462 12.1256C1.41173 14.6385 0 18.0467 0 21.6005C0 29.0009 5.99916 35 13.3995 35C16.9533 35 20.3615 33.5882 22.8744 31.0753L28.5471 25.4027C28.5471 25.4025 28.5472 25.4028 28.5471 25.4027L45.0753 8.87437C46.2755 7.67423 47.9032 7 49.6005 7C52.442 7 54.8511 8.85198 55.6863 11.4147L60.9026 6.19845C58.5229 2.4714 54.3503 0 49.6005 0C46.0467 0 42.6385 1.41173 40.1256 3.92462L17.9247 26.1256C16.7245 27.3258 15.0968 28 13.3995 28C9.86515 28 7 25.1349 7 21.6005C7 19.9032 7.67423 18.2755 8.87437 17.0753L17.0753 8.87437C18.2755 7.67423 19.9032 7 21.6005 7C24.4421 7 26.8511 8.85206 27.6863 11.4149L32.9027 6.19858C30.523 2.47147 26.3504 0 21.6005 0Z" fill="#394149"/>
<path d="M45.9244 26.1256C44.7243 27.3258 43.0965 28 41.3993 28C38.5581 28 36.1493 26.1485 35.3138 23.5861L30.0977 28.8023C32.4774 32.5289 36.6498 35 41.3993 35C44.9531 35 48.3612 33.5882 50.8741 31.0753L73.0751 8.87437C74.2752 7.67423 75.903 7 77.6002 7C81.1347 7 83.9998 9.86515 83.9998 13.3995C83.9998 15.0968 83.3255 16.7245 82.1254 17.9247L73.9244 26.1256C72.7243 27.3258 71.0965 28 69.3993 28C66.5579 28 64.1489 26.1481 63.3136 23.5856L58.0974 28.8018C60.4771 32.5288 64.6495 35 69.3993 35C72.9531 35 76.3612 33.5882 78.8741 31.0753L87.0751 22.8744C89.588 20.3615 90.9998 16.9533 90.9998 13.3995C90.9998 5.99916 85.0006 0 77.6002 0C74.0465 0 70.6383 1.41173 68.1254 3.92462L45.9244 26.1256Z" fill="#394149"/>
</g>
<defs>
<clipPath id="clip0_305_449">
<rect width="91" height="35" fill="white"/>
</clipPath>
</defs>
</svg>

<svg width="91" height="35" fill="none" xmlns="http://www.w3.org/2000/svg"><g clip-path="url(#a)" fill="#394149"><path d="M21.6 0a13.4 13.4 0 0 0-9.474 3.925l-8.201 8.2A13.4 13.4 0 0 0 0 21.602C0 29 6 35 13.4 35a13.4 13.4 0 0 0 9.474-3.925l5.673-5.672L45.075 8.874a6.4 6.4 0 0 1 10.611 2.54l5.217-5.216A13.39 13.39 0 0 0 49.6 0a13.4 13.4 0 0 0-9.474 3.925l-22.201 22.2a6.4 6.4 0 1 1-9.05-9.05l8.2-8.2a6.4 6.4 0 0 1 10.611 2.54l5.217-5.216A13.39 13.39 0 0 0 21.6 0Z"/><path d="M45.924 26.126a6.4 6.4 0 0 1-10.61-2.54l-5.216 5.216A13.39 13.39 0 0 0 41.399 35a13.4 13.4 0 0 0 9.475-3.925l22.201-22.2a6.4 6.4 0 1 1 9.05 9.05l-8.2 8.2a6.4 6.4 0 0 1-10.611-2.54l-5.217 5.217A13.39 13.39 0 0 0 69.4 35a13.4 13.4 0 0 0 9.475-3.925l8.201-8.2A13.4 13.4 0 0 0 91 13.398C91 6 85 0 77.6 0a13.4 13.4 0 0 0-9.475 3.925l-22.2 22.2Z"/></g><defs><clipPath id="a"><path fill="#fff" d="M0 0h91v35H0z"/></clipPath></defs></svg>
